X:59
T: De klenge Mennchen, S. 27
N: L0020
O: Luxemburg
S: Die Luxemburger Volkslieder lterer Zeit, Luxemburg 1904 posth.]
R: ??, Liebeslied, Tanzlied]
M: 2/4
L: 1/8
K: F
C | FGAB | c2c
c | ddfd | c2z
c | cBBB | A2A
A | GGGG | F2z

@@@ Tune index: 8113
